X: 136
%
U:~=!turn!
T: Delvin Side
C:
O:Scotland
B:Keith Norman MacDonald : "The Skye collection of the best reels & strathspeys extant" : 1887
Z:Ralph Palmer
R:Strathspey
M:C
L:1/8
K:E aeolian
F !segno!|: E>e (d/^c/).B/.A/ B<ETB>A | E<e (d/^c/).B/.A/ {/c}d>DA>F | E>e (d/^c/).B/.A/ B<EB>e | (3fdf (3e^ce {/c}d<DA>F :|
{/^c}d>E(B>E) {/c}d>E(B>e) | {/^c}d>E(B>E) {/c}d>BA>F | d>E(B>E) {/c}d>EB>e | (3fdf (3e^ce {/c}d<DA>F |
{/^c}dE(BE) {/c}d>EB>e | {/^c}d>E(B>E) {/c}d>BA>F | T(E>F)G>A (B>^c)d>e | (3fbf (3ege (3d^cB (3AGF !segno!|]


